X:03
T: Bluegrass Stomp
C: Bill Monroe - Arr.  Mike Compton
Z: TablEdited by Mike Stangeland for MandoZine
S: MandoZine TablEdit Archives
L: 1/8
Q: 420
M: 4/4
K: D
 "D"[dD][dD] [cD][dD] [AD]D2D | [d2D2] [cD][dD] AD2A | [dD][dD] [cD][dD] AD AA | "D7"=c2 =c=c (3B=cB A2 |
 "G"G,B, D=F =zD DD | DA zA =FE D[DB,] |
 "D"[A2D2A,2] [ADA,][ADA,] [A/D/B,/][A/D/B,/][ADB,] [A/D/^A,/][A/D/^A,/][AD^A,] |
 [A2D2A,2] [A2D2A,2] [A2D2A,2] [ADA,][ADA,] |
 "A"=cB A=c BA2A | Ad zd A=F (3E=FE |
 "D"[A2D2] [A2D2] [A/D/B,/][A/D/B,/][ADB,] [A/D/^A,/][A/D/^A,/][AD^A,] |
 [A2D2A,2] [A2D2A,2] [A2D2A,2] [A2D2A,2] | [dA][dA] [dA][dA] [dA][dA] [dA][dA] |
 [d4A4] A,B, D2 | [d2A2] [d2A2] [d2A2] AF |
 "D7"[F2=C2] [F2=C2] [F2=C2] [F=C]G, | "G"G,G, B,D =F=F ED | DA2A =FE DB, |
 "D"[A2D2A,2] [ADA,][ADA,] [A/D/B,/][A/D/B,/][ADB,] [A/D/^A,/][A/D/^A,/][AD^A,] |
 [A2D2A,2] [A2D2A,2] [A2D2A,2] [A2D2A,2] |
 "A"=cB A=c BA2A | Ad zd A=F (3E=FE |
 "D"[A2D2] [A2D2] [A/D/B,/][A/D/B,/][ADB,] [A/D/^A,/][A/D/^A,/][AD^A,] | [A8D8A,8] |
